bootstrap/volume-up.svg

<svg xmlns="http://www.w3.org/2000/svg" width="16" height="16" fill="currentColor" class="bi bi-volume-up" viewBox="0 0 16 16">
  <path d="M11.536 14.01A8.47 8.47 0 0 0 14.026 8a8.47 8.47 0 0 0-2.49-6.01l-.708.707A7.48 7.48 0 0 1 13.025 8c0 2.071-.84 3.946-2.197 5.303z"/>
  <path d="M10.121 12.596A6.48 6.48 0 0 0 12.025 8a6.48 6.48 0 0 0-1.904-4.596l-.707.707A5.48 5.48 0 0 1 11.025 8a5.48 5.48 0 0 1-1.61 3.89z"/>
  <path d="M10.025 8a4.5 4.5 0 0 1-1.318 3.182L8 10.475A3.5 3.5 0 0 0 9.025 8c0-.966-.392-1.841-1.025-2.475l.707-.707A4.5 4.5 0 0 1 10.025 8M7 4a.5.5 0 0 0-.812-.39L3.825 5.5H1.5A.5.5 0 0 0 1 6v4a.5.5 0 0 0 .5.5h2.325l2.363 1.89A.5.5 0 0 0 7 12zM4.312 6.39 6 5.04v5.92L4.312 9.61A.5.5 0 0 0 4 9.5H2v-3h2a.5.5 0 0 0 .312-.11"/>
</svg>

<svg viewBox="0 0 16 16" xmlns="http://www.w3.org/2000/svg"><g><path d="M11.536 14.01v0c1.59-1.6 2.49-3.76 2.49-6.01v0c0-2.26-.9-4.42-2.49-6.01l-.71.7 0-.001c1.4 1.4 2.19 3.31 2.19 5.3 0 2.07-.84 3.94-2.2 5.3l.7.7Z"/><path d="M10.12 12.596v0c1.22-1.22 1.9-2.88 1.9-4.6l-.001-.001c0-1.73-.69-3.38-1.904-4.6l-.71.7v0c1.03 1.03 1.61 2.42 1.61 3.88v0c0 1.45-.58 2.85-1.61 3.89l.7.7Z"/><path d="M10.025 8v0c0 1.19-.48 2.33-1.32 3.18l-.71-.71h-.001c.65-.66 1.02-1.55 1.02-2.48 0-.97-.4-1.85-1.03-2.48l.7-.71v0c.84.84 1.31 1.98 1.31 3.18ZM6.99 4H6.99c-.01-.28-.23-.5-.51-.5 -.12 0-.23.03-.32.1L3.8 5.49H1.47v0c-.28 0-.5.22-.5.5v4 0c0 .27.22.5.5.5h2.32l2.363 1.89v0c.21.17.53.13.7-.08 .07-.09.1-.2.1-.32v-8ZM4.3 6.39l1.68-1.35v5.92L4.29 9.61v0c-.09-.08-.2-.11-.32-.11h-2v-3h2v0c.11-.01.22-.04.31-.11Z"/></g></svg>
